X:15555
T:Sl\"angpolska
S:Cathy
R:Sl\"angpolska
O:Sweden
M:3/4
L:1/16
I:speed 348
K:ADor
A2AB c2cB A2AB | cBcd e4 c4|\
e2a2 a2f2 f2a2 |1 abag e4 c4 :|2 abag e8 |:\
e2a2 a2f2 f2a2 | abag e4 c4 |\
e2g2 g2e2 e2g2 | gagf d4 B4 |\
cBcd e2ec A2Ac | ~B2A^G A8:|
